icons/integrations-light.svg

<svg width="256" height="256" viewBox="0 0 256 256" fill="none" xmlns="http://www.w3.org/2000/svg">
<rect width="256" height="256" rx="60" fill="#F4F2ED"/>
<path d="M157.417 202.892C156.592 207.406 152.736 211 147.882 211H137.937V200.562H147.233L151.345 178.053L154.09 177.005C159.235 175.041 163.978 172.147 168.133 168.504L170.458 166.465L190.965 173.944L200.481 156.599L184.014 141.597L184.479 138.796C184.951 135.961 185.207 133.063 185.207 130.108C185.207 127.156 184.951 124.258 184.479 121.423L184.014 118.622L200.481 103.62L190.965 86.2746L170.458 93.754L168.133 91.7158C163.979 88.0724 159.235 85.1786 154.089 83.2133L151.345 82.1654L147.233 59.6562H137.937V49.2188H147.882C152.735 49.2188 156.591 52.8115 157.417 57.3249L160.573 74.603C164.882 76.5194 168.915 78.9672 172.6 81.8627L188.096 76.2107C192.672 74.5408 197.563 76.6012 199.812 80.7008L209.756 98.8251C211.962 102.846 211.196 107.978 207.747 111.119L195.186 122.564C195.485 125.028 195.645 127.545 195.645 130.108C195.645 132.673 195.485 135.19 195.186 137.655L207.747 149.099C211.195 152.242 211.962 157.37 209.756 161.393L199.813 179.517C197.562 183.62 192.673 185.678 188.099 184.009L172.6 178.356C168.915 181.252 164.882 183.7 160.573 185.616L157.417 202.892ZM122.281 54.4375H90.9687V64.875H122.281V54.4375ZM122.281 190.125H90.9687V200.562H122.281V190.125ZM70.0938 153.594H122.281V164.031H70.0938V153.594ZM122.281 96.1875H70.0938V106.625H122.281V96.1875Z" fill="#535966"/>
<path d="M80.5312 54.4375C83.4135 54.4375 85.75 56.774 85.75 59.6562C85.75 62.5385 83.4135 64.875 80.5312 64.875C77.649 64.875 75.3125 62.5385 75.3125 59.6562C75.3125 56.774 77.649 54.4375 80.5312 54.4375ZM96.1875 59.6562C96.1875 51.0096 89.1779 44 80.5312 44C71.8846 44 64.875 51.0096 64.875 59.6562C64.875 68.3029 71.8846 75.3125 80.5312 75.3125C89.1779 75.3125 96.1875 68.3029 96.1875 59.6562ZM148.478 147.336C151.54 143.126 153.594 137.052 153.594 130.109C153.594 123.166 151.54 117.093 148.478 112.883C145.412 108.668 141.621 106.625 137.938 106.625V96.1875C145.783 96.1875 152.429 100.57 156.919 106.743C161.412 112.922 164.031 121.2 164.031 130.109C164.031 139.019 161.412 147.297 156.919 153.475C152.429 159.649 145.783 164.031 137.938 164.031V153.594C141.621 153.594 145.412 151.551 148.478 147.336ZM64.875 101.406C64.875 98.5239 62.5385 96.1875 59.6562 96.1875C56.774 96.1875 54.4375 98.5239 54.4375 101.406C54.4375 104.289 56.774 106.625 59.6562 106.625C62.5385 106.625 64.875 104.289 64.875 101.406ZM59.6562 85.75C68.3029 85.75 75.3125 92.7596 75.3125 101.406C75.3125 110.053 68.3029 117.062 59.6562 117.062C51.0096 117.062 44 110.053 44 101.406C44 92.7596 51.0096 85.75 59.6562 85.75ZM59.6562 153.594C62.5385 153.594 64.875 155.93 64.875 158.812C64.875 161.695 62.5385 164.031 59.6562 164.031C56.774 164.031 54.4375 161.695 54.4375 158.812C54.4375 155.93 56.774 153.594 59.6562 153.594ZM75.3125 158.812C75.3125 150.166 68.3029 143.156 59.6562 143.156C51.0096 143.156 44 150.166 44 158.812C44 167.459 51.0096 174.469 59.6562 174.469C68.3029 174.469 75.3125 167.459 75.3125 158.812ZM85.75 195.344C85.75 192.461 83.4135 190.125 80.5312 190.125C77.649 190.125 75.3125 192.461 75.3125 195.344C75.3125 198.226 77.649 200.562 80.5312 200.562C83.4135 200.562 85.75 198.226 85.75 195.344ZM80.5312 179.688C89.1779 179.688 96.1875 186.697 96.1875 195.344C96.1875 203.991 89.1779 211 80.5312 211C71.8846 211 64.875 203.991 64.875 195.344C64.875 186.697 71.8846 179.688 80.5312 179.688Z" fill="#00BFB3"/>
</svg>

<svg xmlns="http://www.w3.org/2000/svg" width="256" height="256" fill="none"><rect width="256" height="256" fill="#F4F2ED" rx="60"/><path fill="#535966" d="M157.417 202.892c-.825 4.514-4.681 8.108-9.535 8.108h-9.945v-10.438h9.296l4.112-22.509 2.745-1.048c5.145-1.964 9.888-4.858 14.043-8.501l2.325-2.039 20.507 7.479 9.516-17.345-16.467-15.002.465-2.801c.472-2.835.728-5.733.728-8.688 0-2.952-.256-5.85-.728-8.685l-.465-2.801 16.467-15.002-9.516-17.345-20.507 7.479-2.325-2.038c-4.154-3.644-8.898-6.537-14.044-8.503l-2.744-1.048-4.112-22.509h-9.296V49.22h9.945c4.853 0 8.709 3.593 9.535 8.106l3.156 17.278a57 57 0 0 1 12.027 7.26l15.496-5.652c4.576-1.67 9.467.39 11.716 4.49l9.944 18.124c2.206 4.021 1.44 9.153-2.009 12.294l-12.561 11.445c.299 2.464.459 4.981.459 7.544 0 2.565-.16 5.082-.459 7.547l12.561 11.444c3.448 3.143 4.215 8.271 2.009 12.294l-9.943 18.124c-2.251 4.103-7.14 6.161-11.714 4.492l-15.499-5.653a57 57 0 0 1-12.027 7.26zM122.281 54.438H90.969v10.437h31.312zm0 135.687H90.969v10.437h31.312zm-52.187-36.531h52.187v10.437H70.094zm52.187-57.406H70.094v10.437h52.187z"/><path fill="#00BFB3" d="M80.531 54.438a5.219 5.219 0 1 1 0 10.437 5.219 5.219 0 0 1 0-10.437m15.656 5.218C96.188 51.01 89.178 44 80.532 44s-15.656 7.01-15.656 15.656 7.01 15.657 15.656 15.657 15.656-7.01 15.656-15.657m52.291 87.68c3.062-4.21 5.116-10.284 5.116-17.227s-2.054-13.016-5.116-17.226c-3.066-4.215-6.857-6.258-10.54-6.258V96.188c7.845 0 14.491 4.382 18.981 10.555 4.493 6.179 7.112 14.457 7.112 23.366 0 8.91-2.619 17.188-7.112 23.366-4.49 6.174-11.136 10.556-18.981 10.556v-10.437c3.683 0 7.474-2.043 10.54-6.258m-83.603-45.93a5.219 5.219 0 1 0-10.437 0 5.219 5.219 0 0 0 10.437 0m-5.22-15.656c8.647 0 15.657 7.01 15.657 15.656s-7.01 15.656-15.657 15.656S44 110.053 44 101.406 51.01 85.75 59.656 85.75m0 67.844a5.218 5.218 0 1 1 .001 10.437 5.218 5.218 0 0 1 0-10.437m15.657 5.218c0-8.646-7.01-15.656-15.657-15.656S44 150.166 44 158.812s7.01 15.657 15.656 15.657 15.657-7.01 15.657-15.657m10.437 36.532a5.218 5.218 0 1 0-10.437-.001 5.218 5.218 0 0 0 10.437.001m-5.219-15.656c8.647 0 15.656 7.009 15.656 15.656S89.178 211 80.532 211s-15.656-7.009-15.656-15.656 7.01-15.656 15.656-15.656"/></svg>
